icons/24x24_datagrid_filled.svg

<svg xmlns="http://www.w3.org/2000/svg" width="24" height="24" viewBox="0 0 24 24">
  <path fill-rule="evenodd" d="M4,15 L20,15 L20,19 C20,19.5522847 19.5522847,20 19,20 L5,20 C4.44771525,20 4,19.5522847 4,19 L4,15 Z M4,9 L20,9 L20,14 L4,14 L4,9 Z M5,4 L19,4 C19.5522847,4 20,4.44771525 20,5 L20,8 L4,8 L4,5 C4,4.44771525 4.44771525,4 5,4 Z"/>
</svg>

<svg width="24" height="24" fill="none" xmlns="http://www.w3.org/2000/svg"><path fill-rule="evenodd" clip-rule="evenodd" d="M4 15h16v4a1 1 0 0 1-1 1H5a1 1 0 0 1-1-1v-4Zm0-6h16v5H4V9Zm1-5h14a1 1 0 0 1 1 1v3H4V5a1 1 0 0 1 1-1Z" fill="#000"/></svg>
